icons/folder-lock-line.svg

<svg xmlns="http://www.w3.org/2000/svg" width="24" height="24" fill="none"><g clip-path="url(#a)"><g><path fill="#121212" d="M12.414 5H21C21.2652 5 21.5196 5.10536 21.7071 5.29289C21.8946 5.48043 22 5.73478 22 6V20C22 20.2652 21.8946 20.5196 21.7071 20.7071C21.5196 20.8946 21.2652 21 21 21H3C2.73478 21 2.48043 20.8946 2.29289 20.7071C2.10536 20.5196 2 20.2652 2 20V4C2 3.73478 2.10536 3.48043 2.29289 3.29289C2.48043 3.10536 2.73478 3 3 3H10.414L12.414 5ZM4 5V19H20V7H11.586L9.586 5H4ZM15 13H16V17H8V13H9V12C9 11.2044 9.31607 10.4413 9.87868 9.87868C10.4413 9.31607 11.2044 9 12 9C12.7956 9 13.5587 9.31607 14.1213 9.87868C14.6839 10.4413 15 11.2044 15 12V13ZM13 13V12C13 11.7348 12.8946 11.4804 12.7071 11.2929C12.5196 11.1054 12.2652 11 12 11C11.7348 11 11.4804 11.1054 11.2929 11.2929C11.1054 11.4804 11 11.7348 11 12V13H13Z"/></g></g><defs><clipPath id="a"><rect width="24" height="24" fill="white"/></clipPath></defs></svg>

<svg width="24" height="24" fill="none" xmlns="http://www.w3.org/2000/svg"><g clip-path="url(#a)"><path d="M12.414 5H21a1 1 0 0 1 1 1v14a1 1 0 0 1-1 1H3a1 1 0 0 1-1-1V4a1 1 0 0 1 1-1h7.414l2 2ZM4 5v14h16V7h-8.414l-2-2H4Zm11 8h1v4H8v-4h1v-1a3 3 0 0 1 6 0v1Zm-2 0v-1a1 1 0 0 0-2 0v1h2Z" /></g><defs><clipPath id="a"><path fill="#fff" d="M0 0h24v24H0z"/></clipPath></defs></svg>
